;FLAVOR:Marlin
;TIME:2753
;Filament used: 1.32606m
;Layer height: 0.2
;MINX:72.909
;MINY:76.502
;MINZ:0.2
;MAXX:162.869
;MAXY:158.5
;MAXZ:10.4
;Generated with Cura_SteamEngine 4.6.2
M140 S50
M105
M190 S50
M104 S200
M105
M109 S200
M82 ;absolute extrusion mode
; Ender 3 Custom Start G-code
G92 E0 ; Reset Extruder
G28 ; Home all axes
G1 Z2.0 F3000 ; Move Z Axis up little to prevent scratching of Heat Bed
G1 X0.1 Y20 Z0.3 F5000.0 ; Move to start position
G1 X0.1 Y200.0 Z0.3 F1500.0 E15 ; Draw the first line
G1 X0.4 Y200.0 Z0.3 F5000.0 ; Move to side a little
G1 X0.4 Y20 Z0.3 F1500.0 E30 ; Draw the second line
G92 E0 ; Reset Extruder
G1 Z2.0 F3000 ; Move Z Axis up little to prevent scratching of Heat Bed
G1 X5 Y20 Z0.3 F5000.0 ; Move over to prevent blob squish
G92 E0
G92 E0
G1 F2700 E-5
;LAYER_COUNT:53
;LAYER:0
M107
G0 F6000 X120.45 Y77.328 Z0.2
;TYPE:SKIRT
G1 F2700 E0
G1 F1200 X121.079 Y77.359 E0.02095
G1 X121.303 Y77.377 E0.02842
G1 X121.875 Y77.436 E0.04755
G1 X122.843 Y77.592 E0.08016
G1 X123.624 Y77.757 E0.10671
G1 X124.43 Y77.962 E0.13437
G1 X124.638 Y78.024 E0.14159
G1 X125.364 Y78.271 E0.16709
G1 X125.898 Y78.475 E0.18611
G1 X126.556 Y78.753 E0.20986
G1 X127.213 Y79.068 E0.2341
G1 X128.04 Y79.529 E0.26559
G1 X128.762 Y79.976 E0.29383
G1 X129.604 Y80.557 E0.32786
G1 X129.802 Y80.709 E0.33616
G1 X130.305 Y81.121 E0.35779
G1 X130.647 Y81.42 E0.37289
G1 X131.113 Y81.854 E0.39407
G1 X131.446 Y82.184 E0.40967
G1 X131.938 Y82.708 E0.43357
G1 X132.242 Y83.055 E0.44892
G1 X132.606 Y83.494 E0.46789
G1 X132.845 Y83.799 E0.48077
G1 X134.439 Y85.792 E0.56565
G1 X136.125 Y87.781 E0.65238
G1 X137.783 Y89.629 E0.73495
G1 X139.543 Y91.482 E0.81996
G1 X141.35 Y93.28 E0.90474
G1 X143.205 Y95.024 E0.98942
G1 X145.08 Y96.689 E1.07282
G1 X147.026 Y98.321 E1.1573
G1 X149.057 Y99.928 E1.24344
G1 X151.065 Y101.429 E1.32682
G1 X153.135 Y102.885 E1.41099
G1 X154.83 Y104.007 E1.4786
G1 X155.19 Y104.255 E1.49314
G1 X155.632 Y104.578 E1.51135
G1 X155.82 Y104.723 E1.51925
G1 X156.305 Y105.121 E1.54011
G1 X156.647 Y105.42 E1.55522
G1 X157.113 Y105.854 E1.5764
G1 X157.446 Y106.184 E1.592
G1 X157.938 Y106.708 E1.6159
G1 X158.242 Y107.055 E1.63125
G1 X159.018 Y108.061 E1.6735
G1 X159.545 Y108.84 E1.70479
G1 X160.018 Y109.609 E1.73481
G1 X160.294 Y110.144 E1.75484
G1 X160.647 Y110.88 E1.78199
G1 X161.001 Y111.711 E1.81203
G1 X161.151 Y112.139 E1.82711
G1 X161.371 Y112.816 E1.85079
G1 X161.553 Y113.447 E1.87263
G1 X161.603 Y113.643 E1.87936
G1 X161.777 Y114.464 E1.90727
G1 X161.86 Y114.955 E1.92383
G1 X161.958 Y115.699 E1.94879
G1 X162.024 Y116.4 E1.97221
G1 X162.069 Y117.418 E2.0061
G1 X162.067 Y117.748 E2.01708
G1 X162.011 Y118.754 E2.05059
G1 X161.933 Y119.495 E2.07537
G1 X161.813 Y120.311 E2.10281
G1 X161.713 Y120.843 E2.12081
G1 X161.547 Y121.579 E2.1459
G1 X161.488 Y121.801 E2.15354
G1 X161.302 Y122.419 E2.17501
G1 X161.148 Y122.879 E2.19114
G1 X160.913 Y123.517 E2.21376
G1 X160.502 Y124.439 E2.24733
G1 X160.219 Y124.998 E2.26817
G1 X159.879 Y125.616 E2.29163
G1 X159.681 Y125.948 E2.30449
G1 X159.285 Y126.56 E2.32873
G1 X158.987 Y126.987 E2.34605
G1 X158.6 Y127.507 E2.36761
G1 X158.341 Y127.832 E2.38143
G1 X157.676 Y128.587 E2.4149
G1 X157.355 Y128.917 E2.43021
G1 X156.931 Y129.331 E2.44992
G1 X156.457 Y129.758 E2.47114
G1 X155.689 Y130.371 E2.50382
G1 X154.819 Y130.993 E2.53939
G1 X152.501 Y132.557 E2.6324
G1 X150.431 Y134.039 E2.71707
G1 X148.453 Y135.545 E2.79976
G1 X146.434 Y137.172 E2.886
G1 X144.514 Y138.812 E2.96998
G1 X142.615 Y140.529 E3.05514
G1 X140.789 Y142.277 E3.13921
G1 X139.012 Y144.075 E3.22329
G1 X137.287 Y145.926 E3.30744
G1 X135.6 Y147.839 E3.39228
G1 X133.565 Y150.298 E3.49844
G1 X132.326 Y151.85 E3.56449
G1 X131.647 Y152.618 E3.59859
G1 X131.335 Y152.937 E3.61343
G1 X130.931 Y153.331 E3.6322
G1 X130.471 Y153.747 E3.65282
G1 X129.706 Y154.358 E3.68539
G1 X129.13 Y154.775 E3.70904
G1 X128.469 Y155.215 E3.73545
G1 X128.029 Y155.484 E3.7526
G1 X127.289 Y155.896 E3.78077
G1 X127.086 Y155.998 E3.78833
G1 X126.551 Y156.248 E3.80797
G1 X126.007 Y156.483 E3.82768
G1 X125.247 Y156.775 E3.85476
G1 X125.053 Y156.841 E3.86157
G1 X124.404 Y157.038 E3.88413
G1 X123.862 Y157.183 E3.90279
G1 X123.238 Y157.33 E3.92412
G1 X122.751 Y157.428 E3.94064
G1 X121.844 Y157.568 E3.97116
G1 X121.587 Y157.596 E3.97976
G1 X121.076 Y157.639 E3.99682
G1 X120.819 Y157.654 E4.00538
G1 X120.429 Y157.669 E4.01836
G1 X118.772 Y157.7 E4.07348
G1 X116.653 Y157.699 E4.14396
G1 X115.804 Y157.688 E4.1722
G1 X115.173 Y157.66 E4.19321
G1 X114.72 Y157.626 E4.20832
G1 X114.2 Y157.574 E4.2257
G1 X113.916 Y157.538 E4.23522
G1 X112.928 Y157.363 E4.26859
G1 X112.166 Y157.189 E4.29459
G1 X111.381 Y156.976 E4.32164
G1 X111.018 Y156.862 E4.3343
G1 X110.331 Y156.619 E4.35853
G1 X110.075 Y156.518 E4.36769
G1 X109.573 Y156.305 E4.38583
G1 X109.254 Y156.159 E4.39749
G1 X108.632 Y155.848 E4.42062
G1 X108.19 Y155.608 E4.43735
G1 X107.611 Y155.268 E4.45968
G1 X107.185 Y154.999 E4.47644
G1 X106.444 Y154.484 E4.50646
G1 X106.089 Y154.201 E4.52156
G1 X105.461 Y153.676 E4.54878
G1 X104.903 Y153.174 E4.57374
G1 X104.707 Y152.984 E4.58282
G1 X104.241 Y152.505 E4.60505
G1 X103.6 Y151.761 E4.63771
G1 X103.104 Y151.125 E4.66454
G1 X101.475 Y149.097 E4.75106
G1 X99.825 Y147.157 E4.83576
G1 X98.145 Y145.292 E4.91925
G1 X96.38 Y143.438 E5.00439
G1 X94.566 Y141.641 E5.08931
G1 X92.736 Y139.926 E5.17273
G1 X90.827 Y138.237 E5.25751
G1 X88.87 Y136.602 E5.34233
G1 X86.884 Y135.034 E5.42649
G1 X84.838 Y133.511 E5.51132
G1 X82.789 Y132.075 E5.59454
G1 X81.745 Y131.389 E5.63609
G1 X80.903 Y130.815 E5.66998
G1 X80.121 Y130.225 E5.70256
G1 X79.475 Y129.687 E5.73053
G1 X78.903 Y129.173 E5.7561
G1 X78.708 Y128.984 E5.76514
G1 X78.387 Y128.659 E5.78033
G1 X78.221 Y128.483 E5.78838
G1 X77.602 Y127.763 E5.81996
G1 X77.231 Y127.288 E5.84
G1 X76.821 Y126.724 E5.86319
G1 X76.612 Y126.415 E5.8756
G1 X76.242 Y125.825 E5.89877
G1 X75.934 Y125.295 E5.91915
G1 X75.476 Y124.411 E5.95227
G1 X75.3 Y124.026 E5.96635
G1 X74.879 Y122.945 E6.00493
G1 X74.605 Y122.104 E6.03435
G1 X74.48 Y121.69 E6.04873
G1 X74.388 Y121.361 E6.0601
G1 X74.178 Y120.633 E6.0853
G1 X74.057 Y120.182 E6.10083
G1 X73.862 Y119.3 E6.13087
G1 X73.746 Y118.405 E6.16089
G1 X73.709 Y117.502 E6.19095
G1 X73.752 Y116.6 E6.22098
G1 X73.875 Y115.706 E6.251
G1 X73.97 Y115.245 E6.26665
G1 X74.036 Y114.959 E6.27641
G1 X74.125 Y114.603 E6.28862
G1 X74.408 Y113.557 E6.32466
G1 X74.601 Y112.882 E6.34801
G1 X74.745 Y112.42 E6.36411
G1 X74.818 Y112.204 E6.37169
G1 X75.017 Y111.667 E6.39074
G1 X75.228 Y111.155 E6.40916
G1 X75.394 Y110.777 E6.42289
G1 X75.661 Y110.215 E6.44358
G1 X75.845 Y109.857 E6.45697
G1 X76.504 Y108.753 E6.49973
G1 X77.051 Y107.955 E6.53191
G1 X77.807 Y106.983 E6.57287
G1 X78.02 Y106.741 E6.58359
G1 X78.448 Y106.279 E6.60454
G1 X78.765 Y105.957 E6.61957
G1 X78.975 Y105.753 E6.6293
G1 X79.488 Y105.287 E6.65235
G1 X79.796 Y105.026 E6.66578
G1 X80.323 Y104.609 E6.68813
G1 X80.673 Y104.35 E6.70262
G1 X81.124 Y104.034 E6.72093
G1 X81.622 Y103.705 E6.74078
G1 X83.8 Y102.225 E6.82837
G1 X85.841 Y100.75 E6.91212
G1 X87.84 Y99.218 E6.99589
G1 X89.841 Y97.593 E7.08162
G1 X91.737 Y95.962 E7.16481
G1 X93.619 Y94.248 E7.24947
G1 X95.471 Y92.463 E7.33502
G1 X97.242 Y90.656 E7.41918
G1 X98.956 Y88.807 E7.50303
G1 X100.625 Y86.899 E7.58735
G1 X102.275 Y84.903 E7.67348
G1 X103.206 Y83.713 E7.72373
G1 X103.58 Y83.251 E7.7435
G1 X103.887 Y82.89 E7.75926
G1 X104.251 Y82.486 E7.77735
G1 X104.445 Y82.28 E7.78676
G1 X104.782 Y81.939 E7.80271
G1 X104.992 Y81.736 E7.81242
G1 X105.484 Y81.29 E7.83451
G1 X105.793 Y81.028 E7.84798
G1 X106.316 Y80.614 E7.87017
G1 X106.66 Y80.359 E7.88441
G1 X107.143 Y80.022 E7.904
G1 X107.32 Y79.906 E7.91104
G1 X107.739 Y79.645 E7.92746
G1 X107.943 Y79.525 E7.93533
G1 X108.509 Y79.216 E7.95678
G1 X108.995 Y78.97 E7.97489
G1 X109.597 Y78.69 E7.99698
G1 X110.068 Y78.489 E8.01401
G1 X110.914 Y78.171 E8.04407
G1 X111.301 Y78.045 E8.05761
G1 X112.081 Y77.825 E8.08456
G1 X112.619 Y77.696 E8.10296
G1 X113.742 Y77.492 E8.14092
G1 X114.46 Y77.403 E8.16499
G1 X115.525 Y77.328 E8.2005
G1 X116.999 Y77.302 E8.24953
G1 X119.094 Y77.303 E8.31921
G1 X120.45 Y77.328 E8.36432
G0 F6000 X120.457 Y76.928
G1 F1200 X121.111 Y76.96 E8.3861
G1 X121.671 Y77.01 E8.4048
G1 X121.92 Y77.038 E8.41313
G1 X122.926 Y77.201 E8.44703
G1 X123.707 Y77.366 E8.47358
G1 X124.544 Y77.579 E8.5023
G1 X124.752 Y77.641 E8.50952
G1 X125.507 Y77.897 E8.53604
G1 X126.041 Y78.101 E8.55505
G1 X126.724 Y78.39 E8.57972
G1 X127.391 Y78.71 E8.60432
G1 X128.251 Y79.188 E8.63705
G1 X128.973 Y79.635 E8.66529
G1 X129.848 Y80.24 E8.70067
G1 X130.046 Y80.392 E8.70897
G1 X130.568 Y80.82 E8.73143
G1 X130.91 Y81.119 E8.74654
G1 X131.394 Y81.57 E8.76854
G1 X131.727 Y81.9 E8.78413
G1 X132.239 Y82.444 E8.80898
G1 X132.543 Y82.791 E8.82432
G1 X132.921 Y83.248 E8.84405
G1 X133.095 Y83.471 E8.85346
G1 X134.772 Y85.567 E8.94274
G1 X136.397 Y87.483 E9.0263
G1 X138.088 Y89.368 E9.11052
G1 X139.832 Y91.206 E9.19479
G1 X141.642 Y93.005 E9.27967
G1 X143.462 Y94.716 E9.36276
G1 X145.358 Y96.4 E9.4471
G1 X147.285 Y98.017 E9.53077
G1 X149.276 Y99.592 E9.6152
G1 X151.295 Y101.101 E9.69904
G1 X153.373 Y102.562 E9.78353
G1 X155.056 Y103.678 E9.85069
G1 X155.416 Y103.926 E9.86523
G1 X155.877 Y104.261 E9.88418
G1 X156.065 Y104.406 E9.89208
G1 X156.568 Y104.82 E9.91375
G1 X156.91 Y105.119 E9.92886
G1 X157.394 Y105.57 E9.95086
G1 X157.727 Y105.9 E9.96645
G1 X158.239 Y106.444 E9.9913
G1 X158.543 Y106.791 E10.00665
G1 X159.35 Y107.836 E10.05056
G1 X159.877 Y108.615 E10.08184
G1 X160.359 Y109.4 E10.11248
G1 X160.655 Y109.971 E10.13387
G1 X161.008 Y110.707 E10.16102
G1 X161.369 Y111.554 E10.19164
G1 X161.531 Y112.015 E10.2079
G1 X161.751 Y112.692 E10.23157
G1 X161.941 Y113.348 E10.25429
G1 X161.991 Y113.544 E10.26102
G1 X162.172 Y114.397 E10.29002
G1 X162.255 Y114.888 E10.30658
G1 X162.356 Y115.661 E10.33251
G1 X162.422 Y116.362 E10.35593
G1 X162.469 Y117.42 E10.39115
G1 X162.467 Y117.75 E10.40213
G1 X162.409 Y118.796 E10.43697
G1 X162.331 Y119.537 E10.46175
G1 X162.207 Y120.385 E10.49026
G1 X162.107 Y120.917 E10.50826
G1 X161.933 Y121.682 E10.53436
G1 X161.874 Y121.904 E10.542
G1 X161.682 Y122.546 E10.56428
G1 X161.528 Y123.006 E10.58042
G1 X161.286 Y123.661 E10.60364
G1 X160.859 Y124.62 E10.63856
G1 X160.576 Y125.179 E10.6594
G1 X160.223 Y125.82 E10.68374
G1 X160.025 Y126.152 E10.69659
G1 X159.613 Y126.789 E10.72183
G1 X159.315 Y127.216 E10.73914
G1 X158.913 Y127.756 E10.76153
G1 X158.654 Y128.081 E10.77536
G1 X157.962 Y128.866 E10.81016
G1 X157.641 Y129.196 E10.82547
G1 X157.207 Y129.62 E10.84565
G1 X156.897 Y129.905 E10.85966
G1 X156.722 Y130.059 E10.86741
G1 X155.923 Y130.696 E10.9014
G1 X155.319 Y131.132 E10.92618
G1 X155.042 Y131.325 E10.93741
G1 X152.727 Y132.886 E11.03027
G1 X150.701 Y134.338 E11.11318
G1 X148.661 Y135.89 E11.19843
G1 X146.699 Y137.471 E11.28224
G1 X144.758 Y139.129 E11.36714
G1 X142.914 Y140.797 E11.44984
G1 X141.067 Y142.564 E11.53486
G1 X139.289 Y144.364 E11.61901
G1 X137.58 Y146.197 E11.70236
G1 X135.909 Y148.092 E11.78639
G1 X133.902 Y150.519 E11.89114
G1 X132.639 Y152.1 E11.95845
G1 X131.933 Y152.898 E11.99388
G1 X131.621 Y153.217 E12.00872
G1 X131.207 Y153.62 E12.02794
G1 X130.735 Y154.047 E12.04911
G1 X129.941 Y154.682 E12.08293
G1 X129.365 Y155.099 E12.10658
G1 X128.678 Y155.557 E12.13404
G1 X128.238 Y155.826 E12.15119
G1 X127.468 Y156.254 E12.18049
G1 X127.265 Y156.356 E12.18805
G1 X126.71 Y156.615 E12.20842
G1 X126.166 Y156.85 E12.22813
G1 X125.376 Y157.154 E12.25628
G1 X125.182 Y157.22 E12.2631
G1 X124.507 Y157.425 E12.28656
G1 X123.965 Y157.57 E12.30522
G1 X123.317 Y157.722 E12.32736
G1 X122.83 Y157.82 E12.34388
G1 X121.887 Y157.966 E12.37562
G1 X121.63 Y157.994 E12.38422
G1 X121.1 Y158.038 E12.40191
G1 X120.843 Y158.053 E12.41047
G1 X120.437 Y158.069 E12.42398
G1 X118.772 Y158.1 E12.47937
G1 X116.648 Y158.099 E12.55002
G1 X115.799 Y158.088 E12.57826
G1 X115.143 Y158.059 E12.6001
G1 X114.69 Y158.025 E12.6152
G1 X114.15 Y157.971 E12.63325
G1 X113.866 Y157.935 E12.64278
G1 X112.839 Y157.753 E12.67747
G1 X112.077 Y157.579 E12.70346
G1 X111.261 Y157.358 E12.73158
G1 X110.898 Y157.244 E12.74424
G1 X110.184 Y156.991 E12.76943
G1 X109.928 Y156.89 E12.77858
G1 X109.407 Y156.668 E12.79742
G1 X109.088 Y156.522 E12.80909
G1 X108.441 Y156.199 E12.83314
G1 X107.999 Y155.959 E12.84987
G1 X107.397 Y155.607 E12.87306
G1 X106.971 Y155.338 E12.88982
G1 X106.215 Y154.813 E12.92043
G1 X105.832 Y154.508 E12.93672
G1 X105.204 Y153.983 E12.96394
G1 X104.625 Y153.461 E12.98987
G1 X104.429 Y153.271 E12.99895
G1 X104.115 Y152.954 E13.01379
G1 X103.95 Y152.78 E13.02177
G1 X103.285 Y152.007 E13.05568
G1 X102.789 Y151.371 E13.08251
G1 X101.178 Y149.365 E13.16808
G1 X99.522 Y147.418 E13.25309
G1 X97.843 Y145.554 E13.33653
G1 X96.108 Y143.733 E13.42019
G1 X94.293 Y141.934 E13.50518
G1 X92.463 Y140.218 E13.58862
G1 X90.551 Y138.528 E13.6735
G1 X88.629 Y136.921 E13.75682
G1 X86.626 Y135.34 E13.8417
G1 X84.616 Y133.844 E13.92503
G1 X82.548 Y132.395 E14.00902
G1 X81.519 Y131.719 E14.04997
G1 X80.677 Y131.145 E14.08386
G1 X79.865 Y130.532 E14.1177
G1 X79.219 Y129.994 E14.14566
G1 X78.625 Y129.461 E14.17221
G1 X78.43 Y129.272 E14.18124
G1 X78.096 Y128.933 E14.19707
G1 X77.93 Y128.757 E14.20511
G1 X77.287 Y128.009 E14.23792
G1 X76.916 Y127.534 E14.25797
G1 X76.49 Y126.948 E14.28206
G1 X76.281 Y126.639 E14.29447
G1 X75.896 Y126.026 E14.31855
G1 X75.588 Y125.496 E14.33894
G1 X75.113 Y124.577 E14.37334
G1 X74.937 Y124.192 E14.38742
G1 X74.498 Y123.069 E14.42753
G1 X74.224 Y122.228 E14.45695
G1 X74.094 Y121.798 E14.47189
G1 X73.792 Y120.737 E14.50858
G1 X73.671 Y120.286 E14.52411
G1 X73.471 Y119.387 E14.55474
G1 X73.35 Y118.474 E14.58537
G1 X73.309 Y117.555 E14.61597
G1 X73.348 Y116.635 E14.6466
G1 X73.466 Y115.722 E14.67721
G1 X73.58 Y115.155 E14.69645
G1 X73.646 Y114.869 E14.70621
G1 X73.739 Y114.499 E14.7189
G1 X74.023 Y113.447 E14.75514
G1 X74.216 Y112.772 E14.77849
G1 X74.366 Y112.292 E14.79522
G1 X74.439 Y112.076 E14.8028
G1 X74.645 Y111.517 E14.82262
G1 X74.731 Y111.303 E14.83029
G1 X74.862 Y110.994 E14.84145
G1 X75.028 Y110.616 E14.85518
G1 X75.305 Y110.032 E14.87668
G1 X75.489 Y109.674 E14.89007
G1 X76.174 Y108.527 E14.9345
G1 X76.721 Y107.729 E14.96668
G1 X77.507 Y106.719 E15.00925
G1 X77.72 Y106.477 E15.01997
G1 X78.156 Y106.005 E15.04134
G1 X78.486 Y105.67 E15.05698
G1 X78.696 Y105.466 E15.06672
G1 X79.229 Y104.982 E15.09067
G1 X79.537 Y104.721 E15.1041
G1 X80.085 Y104.287 E15.12735
G1 X80.435 Y104.028 E15.14183
G1 X80.904 Y103.7 E15.16086
G1 X81.432 Y103.352 E15.1819
G1 X83.523 Y101.931 E15.26598
G1 X85.625 Y100.411 E15.35226
G1 X87.612 Y98.888 E15.43553
G1 X89.573 Y97.296 E15.51954
G1 X91.47 Y95.664 E15.60277
G1 X93.356 Y93.947 E15.6876
G1 X95.173 Y92.195 E15.77155
G1 X96.946 Y90.387 E15.85577
G1 X98.677 Y88.518 E15.9405
G1 X100.332 Y86.627 E16.02408
G1 X101.939 Y84.682 E16.108
G1 X102.895 Y83.461 E16.15957
G1 X103.269 Y82.999 E16.17934
G1 X103.588 Y82.624 E16.19572
G1 X103.96 Y82.212 E16.21418
G1 X104.154 Y82.006 E16.22359
G1 X104.504 Y81.652 E16.24015
G1 X104.714 Y81.449 E16.24987
G1 X105.226 Y80.985 E16.27285
G1 X105.535 Y80.723 E16.28632
G1 X106.078 Y80.292 E16.30938
G1 X106.422 Y80.037 E16.32362
G1 X106.924 Y79.687 E16.34398
G1 X107.101 Y79.571 E16.35101
G1 X107.537 Y79.3 E16.36809
G1 X107.741 Y79.18 E16.37596
G1 X108.328 Y78.86 E16.3982
G1 X108.814 Y78.614 E16.41631
G1 X109.44 Y78.322 E16.43929
G1 X109.911 Y78.121 E16.45632
G1 X110.79 Y77.791 E16.48755
G1 X111.177 Y77.665 E16.50109
G1 X111.987 Y77.436 E16.52908
G1 X112.525 Y77.307 E16.54748
